public/logos/remix.svg

<svg width="411" height="473" viewBox="0 0 411 473" fill="none" xmlns="http://www.w3.org/2000/svg">
<path fill-rule="evenodd" clip-rule="evenodd" d="M392.946 364.768C397.201 419.418 397.201 445.036 397.201 473H270.756C270.756 466.909 270.865 461.337 270.975 455.687C271.317 438.123 271.674 419.807 268.828 382.819C265.067 328.667 241.748 316.634 198.871 316.634H160.883H0V218.109H204.889C259.049 218.109 286.13 201.633 286.13 158.011C286.13 119.654 259.049 96.4098 204.889 96.4098H0V0H227.456C350.069 0 411 57.9117 411 150.42C411 219.613 368.123 264.739 310.201 272.26C359.096 282.037 387.681 309.865 392.946 364.768Z" fill="#121212"/>
<path d="M0 473V399.553H133.697C156.029 399.553 160.878 416.116 160.878 425.994V473H0Z" fill="#121212"/>
</svg>

<svg xmlns="http://www.w3.org/2000/svg" fill="none" viewBox="0 0 411 473"><path fill="#121212" fill-rule="evenodd" d="M393 364.8c4.2 54.6 4.2 80.2 4.2 108.2H270.8q0-9 .2-17.3c.3-17.6.7-35.9-2.2-72.9-3.7-54.1-27-66.2-70-66.2H0v-98.5h204.9c54.1 0 81.2-16.5 81.2-60 0-38.4-27-61.7-81.2-61.7H0V0h227.5C350 0 411 58 411 150.4c0 69.2-42.9 114.3-100.8 121.9 48.9 9.7 77.5 37.6 82.7 92.5" clip-rule="evenodd"/><path fill="#121212" d="M0 473v-73.4h133.7c22.3 0 27.2 16.5 27.2 26.4v47z"/></svg>
